X:201
T:The Blueberry Jamboree Reel
R:reel
C:Bruce Osborne - May 2002
Z:abc by bosborne@kos.net
M:4/4
L:1/8
K:Amaj
AB|c2 cB cAFA|E2 EF A2 cd|ecAc ecAc|BABc B2 AB|\
c2 cB cAFA|E2 EF A2 cd|ecAc ecAc|BAGB A2:|
|:ED|CB,CD EFEC|DCDE FAGF|EAcf ecAc|BABc B2 ED|\
CB,CD EFEC|DCDE FAGF|EAce dBGB|AGAB A2:|
